app/dist/common/images/yamama-cement-co.svg

<svg height="18" viewBox="0 0 18 18" width="18" xmlns="http://www.w3.org/2000/svg"><path d="m0 0h18v18h-18z" fill="#f0f3fa"/><path d="m5 9.27-2-3.27h2l1.04 1.83.95-1.83h2.01l-2 3.25v2.75h-2zm4 2.73v-6h5v2h-1.67v-.5h-1.33v3h1.33v-.5h1.67v2z" fill="#005e85"/></svg>

<!-- by TradingView --><svg width="18" height="18" viewBox="0 0 18 18" xmlns="http://www.w3.org/2000/svg"><path fill="#F0F3FA" d="M0 0h18v18H0z"/><path d="M5 9.27 3 6h2l1.04 1.83L6.99 6H9L7 9.25V12H5V9.27ZM9 12V6h5v2h-1.67v-.5H11v3h1.33V10H14v2H9Z" fill="#005E85"/></svg>
